!!!OTL: "Des Reiters Liebchen" MEIN SCHATZ IST A REITER
!!!ARE: Europa, Mitteleuropa, Deutschland, Schwaben
!!!SCT: Z1178
!!!YEM: Copyright 1995, estate of Helmut Schaffrath.
**kern
*ICvox
*Ivox
*M3/4
*k[f#c#]
*D:
{4a
=1
4f#
4a
4a
=2
4b
4a
4a
=3
4f#
4a
4a
=4
2a}
{4a
=5
4a
4b
4b
=6
4.dd
8cc#
4b
=7
4b
4a
4a
=8
2a}
{8b
8a
=9
8a
8g
8g
8f#
4g
=10
2g
8a
8g
=11
8g
8f#
8f#
8e
4f#
=12
2f#}
{4a
=13
4a
4.gg
8a
=14
4a
4.ff#
8ff#
=15
8ff#
8ee
8ee
8dd
8cc#
8ee
=16
2dd}
{4a
=17
8g
8a
8cc#
8ee
4gg
=18
8f#
8a
8dd
8ff#
4aa
=19
8gg
8ff#
8ee
8dd
8cc#
8ee
=20
2d}
==
!!!AGN: Liebes - Lied
!!!ONB: ESAC (Essen Associative Code) Database: ZUCCAL
!!!AMT: simple triple
!!!AIN: vox
!!!EED: Helmut Schaffrath
!!!EEV: 1.0
*-
